X:6933
T:Head Light Reel
M:2/4
L:1/16
K:D
A,C|DA,A,D FDDF|AddB A2FA|GBEG FADF|EFGE DCB,A,|!
DA,A,D FDDF|AddB A2FA|GBEG FADF|EDCE D2:|!
|:fg|afdf gece|fdAd e2dc|dDEF GABc|defg e2fg|!
afdf gece|dcdB AFDF|GABG FAFD|EDCE D2:|!
